X: 29
T:Morag of Dunvegan
M:3/4
L:1/4
R:Air
K:D
"D" F2 F|"D"FED|"D"F A2|"F#m"A3|"G"d2 d|"Em"dBd|"A"B2A|"A7"A3|!
"D"F2 F|"D"FEF|"G"B2A|"D"A3|"G"B2d|"D"BAF|"A"E3|"D"D3||!
"D"d3|"G"d2B|"D"A2D|"D"D3|"Bm"F2 F|"Bm"FEF|"G"B2 A|"A"A3|!
"D"d3|"G"d2B|"D"A2D|"D"D2E|"Bm"F2F|"F#m"A2F|"A"E3|"D"D3||
